X:1
T:Bungalow Jig, The
M:6/8
L:1/8
R:Jig
S:Stanford/Petrie - Complete Collection, No. 962 (1905)
Z:AK/Fiddler's Companion
K:G
d/c/|{B/c/}B2A Bcd|cAG FGA|{B/c/}B2A Bcd|(cA)F G2A|
{B/c/}B2A (Bcd)|cAG (FG)A|{B/c/}BGG cAA|(dc).A G2:|
|:(A/G/)|(FD)D FEF|{G/A/}G2F {B/c/}B2G|(FD)D (FE)F|(Gc)A G2 (A/G/)|
FDD (FE)F|(GA)G FGA|(BG)G cAA|(dc)A G2:||

